icons/label-arrow-left.svg

<svg xmlns="http://www.w3.org/2000/svg" width="24" height="24" viewBox="0 0 24 24">
  <path d="M15.0924635,4 C15.6691887,4 16.2178408,4.24896086 16.5976169,4.68299078 L21.8476169,10.6829908 C22.5074124,11.4370428 22.5074124,12.5629572 21.8476169,13.3170092 L16.5976169,19.3170092 C16.2178408,19.7510391 15.6691887,20 15.0924635,20 L4,20 C2.8954305,20 2,19.1045695 2,18 L2,6 C2,4.8954305 2.8954305,4 4,4 L15.0924635,4 Z M6.01101934,12.1489612 C6.01362808,12.165949 6.01670217,12.1833753 6.02024007,12.2007258 C6.0246398,12.2227461 6.02983363,12.2444365 6.03572097,12.2658396 C6.04009773,12.2814633 6.04472872,12.2968513 6.04973809,12.3121425 C6.05612249,12.3317977 6.06331574,12.3515792 6.07110396,12.3710585 L6.09367336,12.4232215 L6.09367336,12.4232215 C6.10337664,12.4438914 6.11379392,12.4642939 6.12487577,12.484277 C6.13149883,12.4963944 6.13860692,12.5086131 6.14599545,12.5207088 C6.1617187,12.546275 6.17849009,12.5711307 6.19631351,12.5951593 C6.20071786,12.6012086 6.20517454,12.6070733 6.20970461,12.6128994 C6.21507113,12.6196628 6.2173721,12.6225624 6.21968877,12.625449 L6.29289322,12.7071068 L9.29289322,15.7071068 C9.68341751,16.0976311 10.3165825,16.0976311 10.7071068,15.7071068 C11.0675907,15.3466228 11.0953203,14.7793918 10.7902954,14.3871006 L10.7071068,14.2928932 L9.415,13 L13,13 C13.5522847,13 14,12.5522847 14,12 C14,11.4871642 13.6139598,11.0644928 13.1166211,11.0067277 L13,11 L9.415,11 L10.7071068,9.70710678 C11.0976311,9.31658249 11.0976311,8.68341751 10.7071068,8.29289322 C10.3466228,7.93240926 9.77939176,7.90467972 9.38710056,8.20970461 L9.29289322,8.29289322 L6.29289322,11.2928932 L6.24220802,11.347434 L6.24220802,11.347434 L6.232,11.359 L6.21968877,11.374551 L6.216,11.378 L6.22,11.374 L6.19633458,11.4046934 L6.19633458,11.4046934 C6.17849009,11.4288693 6.1617187,11.453725 6.14606743,11.4793398 L6.12467117,11.5159379 L6.12467117,11.5159379 C6.11379392,11.5357061 6.10337664,11.5561086 6.09365378,11.5769009 L6.07122549,11.628664 L6.07122549,11.628664 C6.06331574,11.6484208 6.05612249,11.6682023 6.04954668,11.6882636 C6.04472872,11.7031487 6.04009773,11.7185367 6.03584514,11.734007 C6.02983363,11.7555635 6.0246398,11.7772539 6.02016515,11.7992059 C6.01670217,11.8166247 6.01362808,11.834051 6.0110178,11.8515331 L6.00399798,11.909968 L6.00399798,11.909968 C6.00307004,11.9208131 6.00232561,11.9308872 6.0017331,11.9409686 L6.00018018,11.980824 L6.00004511,11.9904013 L6.00004511,11.9904013 L6,12 L6,12.018 L6.002,12.059 L6.001,12.059 L6.002,12.075 L6.01101934,12.1489612 L6.01101934,12.1489612 Z"/>
</svg>

<svg xmlns="http://www.w3.org/2000/svg" viewBox="0 0 24 24">
  <path d="M15.1 4a2 2 0 0 1 1.5.68l5.25 6a2 2 0 0 1 0 2.64l-5.25 6a2 2 0 0 1-1.5.68H4a2 2 0 0 1-2-2V6c0-1.1.9-2 2-2h11.1zM6 12.15a1.08 1.08 0 0 0 .06.22l.02.05a1.02 1.02 0 0 0 .13.2l.07.09 3 3a1 1 0 0 0 1.5-1.32l-.08-.1L9.4 13H13a1 1 0 0 0 .12-2H9.4l1.3-1.3a1 1 0 0 0-1.32-1.49l-.1.08-3 3-.05.06-.02.02-.02.03-.05.08-.03.04-.03.06-.02.05a.99.99 0 0 0-.06.22v.09l-.01.04v.09l.01.08z"/>
</svg>
